X:1
T:Title
%%score { ( 1 4 5 ) | ( 2 3 6 ) }
L:1/8
Q:1/4=100
M:4/4
K:Bb
V:1 treble nm="Grand Piano"
V:4 treble 
V:5 treble 
V:2 bass 
V:3 bass 
V:6 bass 
V:1
 G2 ^FG [GB]3 [GB] | [^Fc]3 [Fc] [GB]2 G2 | E3 E EE [_A,C_A]>[=A,EG] | [EG]2 F2 z FFF | %4
w: H.~W.~Porter * * * *||||
 B3 B c2 c2 | [Fd]4 z FFF | B3 B c2 c2 | z2 [Ee]2 z4 | c3 F d3 c | [DB]6 _A,2 | e2 B>_A G3 G | %11
w: |||||||
 F2 E2 _A3 [DAB] | [D_Ad]3 [DAc] [DGB]>[B,FA] [B,EG]>[B,DF] | [B,EG]4 z G_AB | c6 z2 | B6 z2 | %16
w: |||||
 c6 z2 | B6 z2 | [Ee]3 [EG] [EG][B,E] [DF]>E | E6 z2 |] %20
w: ||||
V:2
 [E,B,E]2 [E,A,E][E,B,E] [E,E]3 [E,B,] | [E,A,]3 [E,A,] [E,B,]2 [E,B,E]2 | %2
 [C,C]3 [C,G,C] [C,G,C][C,G,C] [F,,F,]>[F,,F,] | z2 D2 z [B,D][B,D][B,D] | %4
 [G,B,D]3 [G,B,D] [F,B,F]2 [F,A,F]2 | [B,,B,]4 z [_A,B,D][=A,C][A,C] | %6
 [G,B,D]3 [G,B,D] [F,B,F]2 [F,A,F]2 | [B,,B,]2 .[C,G,]2 [D,=B,]2 [E,C]2 | %8
 [F,DF]3 [F,B,D] [F,A,F]3 [F,A,E] | [B,,B,]6 z2 | [G,B,E]2 [F,B,D]>[F,B,D] [E,B,E]3 [E,B,E] | %11
 [_A,B,D]2 [G,B,]2 [F,B,D]3 F, | B,,3 B,, B,,>B,, B,,>B,, | E,4 z E,F,G, | %14
 z[K:treble] CCC CC[K:bass]B,_A, | z4 B,2 z2 | z[K:treble] CCC CC[K:bass]B,_A, | %17
 z2 B,B, B,2 [E,G,E]2 | [C,G,]3 [C,A,] [B,,B,][B,,G,] [C,A,]>[E,G,B,] | [E,G,B,]6 z2 |] %20
V:3
 x8 | x8 | x8 | [B,,B,]4 z4 | x8 | x8 | x8 | x8 | x8 | x8 | x8 | x8 | x8 | x8 | %14
 _A,6[K:treble][K:bass] z2 | z2 B,B, z E,F,G, | _A,6[K:treble][K:bass] z2 | G,6 z2 | x8 | x8 |] %20
V:4
 x8 | x8 | x8 | x8 | x8 | x8 | x8 | [Fd]2 z A, [Gd]2 [Gc]2 | x8 | x8 | x8 | x8 | x8 | x8 | %14
 z EEE z edc | z EEE z G_AB | z EEE z edc | z EEE E2 B2 | x8 | x8 |] %20
V:5
 x8 | x8 | x8 | x8 | x8 | x8 | x8 | x8 | x8 | x8 | x8 | x8 | x8 | x8 | z4 E2 z2 | z4 E2 z2 | %16
 z4 E2 z2 | x8 | x8 | x8 |] %20
V:6
 x8 | x8 | x8 | x8 | x8 | x8 | x8 | x8 | x8 | x8 | x8 | x8 | x8 | x8 | x[K:treble] x5[K:bass] x2 | %15
 G,6 z2 | x[K:treble] x5[K:bass] x2 | x8 | x8 | x8 |] %20

